!!!!SEGMENT: pl-wnifc--6670-n--001-003_gall-jan-karol--piesni-polskie-na-chor-meski-z-i-3-badz-mi-litosciw-boze-nieskonczony.krn
!!!cenid: 19xx:171
!!!COM: Gall, Jan Karol
!!!COM-rismID: pe50042628
!!!CDT: 1856-1912
!!!CNT: Polish
!!!GTL: Pieśni polskie na chór męski (z. I)
!!!OTL: 3. Bądź mi litościw Boże nieskończony
!!!OMV: 003
!!!PDT:
!!!AGN:
!!!YEC: Copyright 2022 Narodowy Instytut Fryderyka Chopina (https://polishscores.org)
!!!YEM: License CC-BY-4.0 (https://creativecommons.org/licenses/by/4.0)
!!!SMS-siglum: PL-Wnifc
!!!SMS-shelfmark: 6670/n
!!!SMS-variant:
!!!SMS-altvar:
!!!SMS-shelfwork: 001-003 G
!!!NIFC-rismSourceID: 1001152877
!!!NIFC-rismChildID: 1001152884
!!!NIFC-islandoraID: nifc:213182
!!!URL-pdf-islandora: https://repozytorium.nifc.pl/islandora/object/nifc:213182/datastream/PDF/view
!!!URL-scan: https://polish.musicsources.pl/pl/lokalizacje/galeria/druki-muzyczne/16895/3 @EN{Scan on Polish Music Sources Website} @PL{Skany w portalu Dziedzictwo Muzyki Polskiej w otwartym dostępie}
!!!IIIF:
!!!ONB-nifc:
!!!AIN: 1 bass 1 tenor
!!!key: c
**kern	**kern	**text	**text
*part2	*part1	*part1	*part1
*staff2	*staff1	*staff1	*staff1
*ICvox	*ICvox	*	*
*Ibass	*Itenor	*	*
*I"Basy.	*I"Tenory.	*	*
*I'B	*I'T	*	*
*clefF4	*clefGv2	*	*
*k[b-e-a-]	*k[b-e-a-]	*	*
*c:	*c:	*	*
*M4/4	*M4/4	*	*
*met(c)	*met(c)	*	*
=1	=1	=1	=1
*^	*^	*	*
!	!	!LO:TX:t=P:problem:partia zapisana bez przenośnika oktawowego	!	!	!
2E-/	2C\	2c/	2G\	1. Bądź	2.  Ob-
4E-/	4C\	4c/	4G\	mi	-myj
4E-/	4C\	4c/	4G\	li-	mnie
=2	=2	=2	=2	=2	=2
(4C/	(4C\	(4e-/	[4G\	-to-	z zło-
4BBn/)	4GG\)	4d/)	8G\L]	.	.
.	.	.	8F\J	.	.
2C/	2AA-\	2c/	2E-\	-ściw	-ści
=3	=3	=3	=3	=3	=3
4F/	4FF\	4d/	4A-\	Bo-	Ob-
4F/	4FF\	4d/	4A-\	-że	-myj
4E-/	4GG\	4c/	4G\	nie-	tej
8D/L	4GG\	4Bn/	4G\	-skoń-	go-
8F/J	.	.	.	.	.
=4	=4	=4	=4	=4	=4
2F/	2C\	2c/	2G\	-czo-	-dzi-
2E-/	2C\	2d/	2G\	-ny.	-ny.
!!LO:LB:g=original
=5	=5	=5	=5	=5	=5
2E-/	2C\	2c/	2G\	We-	O-
4E-/	4C\	4c/	4G\	-dług	-czyść
4E-/	4C\	4c/	4G\	wiel-	mnie
=6	=6	=6	=6	=6	=6
(4C/	(4C\	(4e-/	[4G\	-kie-	zbru-
4BBn/)	4GG\)	4d/)	8G\L]	.	.
.	.	.	8F\J	.	.
2C/	2AA-\	2c/	2E-\	-go	-du
=7	=7	=7	=7	=7	=7
4F/	4FF\	4d/	4A-\	mi-	w któ-
4F/	4FF\	4d/	4A-\	-ło-	-rym
4E-/	4GG\	4c/	4G\	-sier-	mnie
8D/L	4GG\	4Bn/	4G\	-dzia	grzech
8F/J	.	.	.	.	.
=8	=8	=8	=8	=8	=8
2F/	2C\	2c/	2G\	Twe-	trzy-
2E-/	2C\	2c/	2G\	-go	-ma
!!LO:LB:g=original
=9	=9	=9	=9	=9	=9
2G/	2C\	2e-/	2c\	We-	Bo
4A-/	4AA-\	4e-/	4c\	-dług	ja
4A-/	4AA-\	4e-/	4c\	li-	po-
=10	=10	=10	=10	=10	=10
(4E-/	(4E-\	(4g/	(4.B-\	-to-	-zna-
4D/)	4BB-\)	4f/)	.	.	.
.	.	.	8A-\)	.	.
2E-/	2E-\	2e-/	2G\	-ści	-ję
=11	=11	=11	=11	=11	=11
4F/	4F\	4d/	4A-\	Swej	wiel-
8F/L	4F\	4d/	8A-\L	nie	-kość
8A-/J	.	.	8c\J	.	.
4A-/	4F\	4d/	4c\	po-	mo-
4A-/	4D\	4f/	4c\	-li-	-jej
=12	=12	=12	=12	=12	=12
(4G/	(8E-\L	(4e-/	(4c\	-czo-	wi-
.	8EE-\J	.	.	.	.
4F/	4FF\	4d/	4A-\	.	.
4E-/)	4GG\)	4c/)	4G\)	.	.
8D/L	4GG\	4Bn/	4G\	-nej	-ny
8F/J	.	.	.	.	.
!!LO:LB:g=original
=13	=13	=13	=13	=13	=13
2E-/	2C\	2c/	2G\	Chciej	I
4E-/	4C\	4c/	4G\	zma-	grzech
4E-/	4C\	4c/	4G\	-zać	mój
=14	=14	=14	=14	=14	=14
(4C/	(4C\	(4e-/	[4G\	mnó-	za-
4BBn/)	4GG\)	4d/)	8G\L]	.	.
.	.	.	8F\J	.	.
2C/	2AA-\	2c/	2E-\	-stwó	-wsze
=15	=15	=15	=15	=15	=15
4F/	4FF\	4d/	4A-\	prze-	przed
4F/	4FF\	4d/	4A-\	-wi-	me-
4E-/	4GG\	4c/	4G\	-nie-	-mi
8D/L	4GG\	4Bn/	4G\	-nia	o-
8F/J	.	.	.	.	.
=16	=16	=16	=16	=16	=16
2F/	2C\	2c/	2G\	me-	-czy-
2E-/	2C\	2c/	2G\	-go!	-ma!
*v	*v	*	*	*	*
*	*v	*v	*	*
==	==	==	==
*-	*-	*-	*-
!!!system-decoration: [(s1,s2)]
!!!ENC: Filip Voros
!!!END: 2024-05-02
!!!EED: Andrzej Borzym
!!!EEV: 2025-03-06
